Adwaita++/status/symbolic/content-loading-symbolic.svg

<svg xmlns="http://www.w3.org/2000/svg" width="16" height="16">
    <g fill="#474747">
        <path d="M5 8a2 2 0 0 1-2 2 2 2 0 0 1-2-2 2 2 0 0 1 2-2 2 2 0 0 1 2 2zM10 8a2 2 0 0 1-2 2 2 2 0 0 1-2-2 2 2 0 0 1 2-2 2 2 0 0 1 2 2zM15 8a2 2 0 0 1-2 2 2 2 0 0 1-2-2 2 2 0 0 1 2-2 2 2 0 0 1 2 2z"/>
    </g>
</svg>

<svg xmlns="http://www.w3.org/2000/svg" width="16" height="16" version="1.1">
 <path style="fill:#444444" d="M 5,8 A 2,2 0 0 1 3,10 2,2 0 0 1 1,8 2,2 0 0 1 3,6 2,2 0 0 1 5,8 Z"/>
 <path style="fill:#444444" d="M 10,8 A 2,2 0 0 1 8,10 2,2 0 0 1 6,8 2,2 0 0 1 8,6 2,2 0 0 1 10,8 Z"/>
 <path style="fill:#444444" d="M 15,8 A 2,2 0 0 1 13,10 2,2 0 0 1 11,8 2,2 0 0 1 13,6 2,2 0 0 1 15,8 Z"/>
</svg>
